X:1
T:Herr Roloff's Farewell
M:C
L:1/8
R:Air
C:J. Scott Skinner (1843-1927)
S:Skinner - Harp and Claymore (1904) p.158
Z:AK/Fiddler's Companion
K:F
%%slurgraces
C \
| A2 B>G c2 A>F | f2 e>d c2 F2 | E2 F2  D2 EF | B2 A2 G3 C \
| A2 B>G c2 A>F | f2 e>d c2 F2 | E2 F>D C2 FB | A2 {F/A/}G2 F2 z |]
A \
| A2 d>e f2 {g/f/}ed | e2 A2 d3 G | G2 cd e2 {f/e/}dc | d2 G2 c3 C \
| A2 B>G c2 A>F | f2 B>d c2AF | D2 F2 C2 FB | A2 {F/A/}G2 (F2F) |]
